X: 3303
T: Klinke-Vals
B:[[Notböcker/Melodier til gamle danske Almuedanse for Violin solo]]
O:Danmark
Z:Søren Bak Vestergaard
M: 3/4
L: 1/4
K: A
(f/g/)|a "^pizz."e "^pizz."e|c A "^pizz."e|d B "^pizz."e|c A (!upbow!f/g/)|\
a "^pizz."e "^pizz."e|c A "^pizz."e|d B "^pizz."e|1 A z:|2 A z z\
|:[K: D]d d/f/a/f/|d d/f/a/f/|g "^pizz."e "^pizz."e|d f A|\
d d/f/a/f/|d d/f/a/f/|g "^pizz."e "^pizz."e|d z z:|
(:musicend:)
NB. pizz. med venstre Haands 2. eller 3. Finger.
(:music:)
